mobile/apps/auth/assets/custom-icons/icons/ar24.svg

<svg xmlns="http://www.w3.org/2000/svg" fill="#00F" viewBox="0 0 500 500"><path d="M139.63 306.55h-13.99c-2.23 0-4.11-.05-5.65-.16s-2.86-.4-3.98-.88c-1.11-.47-2.09-1.19-2.93-2.15-.86-.95-1.7-2.27-2.55-3.97l-6.68-13.04H35.47l-10.18 20.2H0l58.37-112.44h22.89l58.37 112.44ZM93.2 265.36 69.66 218.6l-23.54 46.76H93.2ZM265.23 306.55h-19.56c-3.71 0-6.74-.48-9.07-1.43-2.33-.96-4.29-2.44-5.88-4.45l-24.55-29.91h-28.69v35.79h-23.53V195.23c2.97-.11 6.21-.19 9.71-.24 3.51-.06 7.11-.13 10.84-.24 3.71-.11 7.42-.18 11.14-.24 3.72-.05 7.22-.08 10.51-.08 13.59 0 24.82.98 33.69 2.94 8.87 1.97 16.16 5.54 21.9 10.73 6.37 5.94 9.56 14 9.56 24.18 0 5.09-.69 9.57-2.07 13.44-1.39 3.87-3.35 7.24-5.9 10.09-2.55 2.87-5.63 5.28-9.24 7.24-3.6 1.97-7.64 3.58-12.1 4.85l33.24 38.65Zm-68.98-56.3c3.5 0 7.02-.03 10.57-.08 3.56-.05 6.92-.29 10.11-.72 3.17-.42 6.09-1.09 8.74-1.99 2.65-.91 4.83-2.22 6.52-3.92 1.48-1.6 2.63-3.25 3.42-4.95.79-1.7 1.2-3.89 1.2-6.56 0-1.8-.36-3.56-1.04-5.26-.69-1.71-1.62-3.15-2.78-4.32-1.59-1.6-3.55-2.85-5.88-3.75-2.34-.91-5.01-1.58-8.04-2-3.02-.43-6.44-.67-10.26-.72-3.81-.05-8-.08-12.56-.08h-9.07c-3.6 0-6.84.05-9.7.16v34.04c2.86.1 6.1.15 9.7.15h9.07ZM324.59 213.35c-6.25 0-11.98 1.68-17.18 5.02-5.19 3.33-9.48 7.28-12.87 11.85l-18.45-12.25c6.04-7.32 13.27-13.31 21.7-17.97 8.43-4.67 17.68-7 27.76-7 6.78 0 12.98.87 18.6 2.62 5.62 1.75 10.44 4.22 14.48 7.4 4.02 3.18 7.15 7.05 9.38 11.61 2.22 4.56 3.34 9.64 3.34 15.26 0 5.31-.99 9.97-2.95 14-1.96 4.03-4.55 7.71-7.79 11.05-3.23 3.34-6.92 6.44-11.05 9.31-4.14 2.86-8.38 5.72-12.72 8.59l-19.57 12.88h53.6v20.83h-91.45v-20.51l38.97-25.77c3.81-2.54 7.47-4.95 10.97-7.24 3.5-2.27 6.57-4.61 9.22-6.99 2.66-2.39 4.77-4.91 6.37-7.56 1.59-2.65 2.38-5.57 2.38-8.74 0-2.33-.61-4.51-1.83-6.52-1.22-2.02-2.86-3.77-4.93-5.25-2.06-1.48-4.48-2.62-7.23-3.42-2.76-.8-5.68-1.2-8.75-1.2ZM457.22 306.55v-23.06h-68.38v-23.54l66.63-64.72h24.65v68.54H500v19.72h-19.88v23.06h-22.9Zm-44.05-42.78h44.05v-43.42l-44.05 43.42Z"/></svg>

<svg width="500" height="500" viewBox="0 0 500 500" fill="#0000FF" xmlns="http://www.w3.org/2000/svg">
<path d="M139.63 306.55H125.64C123.41 306.55 121.53 306.5 119.99 306.39C118.45 306.28 117.13 305.99 116.01 305.51C114.9 305.04 113.92 304.32 113.08 303.36C112.22 302.41 111.38 301.09 110.53 299.39L103.85 286.35H35.47L25.29 306.55H0L58.37 194.11H81.26L139.63 306.55ZM93.2 265.36L69.66 218.6L46.12 265.36H93.2Z"/>
<path d="M265.23 306.55H245.67C241.96 306.55 238.93 306.07 236.6 305.12C234.27 304.16 232.31 302.68 230.72 300.67L206.17 270.76H177.48V306.55H153.95V195.23C156.92 195.12 160.16 195.04 163.66 194.99C167.17 194.93 170.77 194.86 174.5 194.75C178.21 194.64 181.92 194.57 185.64 194.51C189.36 194.46 192.86 194.43 196.15 194.43C209.74 194.43 220.97 195.41 229.84 197.37C238.71 199.34 246 202.91 251.74 208.1C258.11 214.04 261.3 222.1 261.3 232.28C261.3 237.37 260.61 241.85 259.23 245.72C257.84 249.59 255.88 252.96 253.33 255.81C250.78 258.68 247.7 261.09 244.09 263.05C240.49 265.02 236.45 266.63 231.99 267.9L265.23 306.55ZM196.25 250.25C199.75 250.25 203.27 250.22 206.82 250.17C210.38 250.12 213.74 249.88 216.93 249.45C220.1 249.03 223.02 248.36 225.67 247.46C228.32 246.55 230.5 245.24 232.19 243.54C233.67 241.94 234.82 240.29 235.61 238.59C236.4 236.89 236.81 234.7 236.81 232.03C236.81 230.23 236.45 228.47 235.77 226.77C235.08 225.06 234.15 223.62 232.99 222.45C231.4 220.85 229.44 219.6 227.11 218.7C224.77 217.79 222.1 217.12 219.07 216.7C216.05 216.27 212.63 216.03 208.81 215.98C205 215.93 200.81 215.9 196.25 215.9H187.18C183.58 215.9 180.34 215.95 177.48 216.06V250.1C180.34 250.2 183.58 250.25 187.18 250.25H196.25Z"/>
<path d="M324.59 213.35C318.34 213.35 312.61 215.03 307.41 218.37C302.22 221.7 297.93 225.65 294.54 230.22L276.09 217.97C282.13 210.65 289.36 204.66 297.79 200C306.22 195.33 315.47 193 325.55 193C332.33 193 338.53 193.87 344.15 195.62C349.77 197.37 354.59 199.84 358.63 203.02C362.65 206.2 365.78 210.07 368.01 214.63C370.23 219.19 371.35 224.27 371.35 229.89C371.35 235.2 370.36 239.86 368.4 243.89C366.44 247.92 363.85 251.6 360.61 254.94C357.38 258.28 353.69 261.38 349.56 264.25C345.42 267.11 341.18 269.97 336.84 272.84L317.27 285.72H370.87V306.55H279.42V286.04L318.39 260.27C322.2 257.73 325.86 255.32 329.36 253.03C332.86 250.76 335.93 248.42 338.58 246.04C341.24 243.65 343.35 241.13 344.95 238.48C346.54 235.83 347.33 232.91 347.33 229.74C347.33 227.41 346.72 225.23 345.5 223.22C344.28 221.2 342.64 219.45 340.57 217.97C338.51 216.49 336.09 215.35 333.34 214.55C330.58 213.75 327.66 213.35 324.59 213.35Z"/>
<path d="M457.22 306.55V283.49H388.84V259.95L455.47 195.23H480.12V263.77H500V283.49H480.12V306.55L457.22 306.55ZM413.17 263.77H457.22V220.35L413.17 263.77Z"/>
</svg>
